X: 14
T: 11B. THE MCCLELLANTOWN HORNPIPE
B: Sam Bayard, "Hill Country Tunes" 1944 #11
S: Played by Emery Martin, Dunbar, PA, Oct 14 1943. Learned from his father.
R: reel
Z: 2010 John Chambers <jc:trillian.mit.edu>
M: C|
L: 1/8
K: G
"a."Bc | dB^/cA BAGB | "b."dB (3cBc d3 B/c/ | dB^/cA BAGB | AF[AD]F G3 :|
|: e/f/ | g2fg afde/f/ | g2fg a3a | b2a2 g2f2 |1 edef g3 :|2 edef g2 Hg>e |]
P: VAR:
"a."d4- | d || "b."dBcA Bdge |] y8 y8 y8 y8 y8 y8 y8 y8

%%sep 2 1 500
%%sep 1 1 500

